blockchains/ethereum/assets/0x1029383292b098f2302DD19299b58659FdE14aba/logo.svg

<svg fill="none" height="250" viewBox="0 0 250 250" width="250" xmlns="http://www.w3.org/2000/svg" xmlns:xlink="http://www.w3.org/1999/xlink"><clipPath id="a"><path d="m0 0h250v250h-250z"/></clipPath><g clip-path="url(#a)"><circle cx="125" cy="125" fill="#0a2336" r="125"/><g fill="#a0f7a7"><path d="m96.7567 55.6198 27.1973-15.783c.775-.4491 1.736-.4491 2.51 0l71.681 41.5867c.774.4489 1.251 1.2796 1.259 2.1777l.096 28.6028c0 .905-.477 1.744-1.259 2.193l-27.16 15.76c-1.668.973-3.761-.24-3.768-2.178l-.09-25.669c0-.898-.483-1.728-1.258-2.177l-69.2083-40.1428c-1.6756-.9728-1.6756-3.3976 0-4.3704z"/><path d="m79.0542 185.15-27.2909-15.789c-.7849-.449-1.2633-1.281-1.2633-2.187v-83.2414c0-.8988.4784-1.7302 1.2558-2.1871l24.6971-14.4028c.7849-.4569 1.7492-.4569 2.5266 0l27.2605 15.7735c1.675.9736 1.682 3.3928.008 4.374l-22.1557 12.9198c-.7774.449-1.2558 1.281-1.2558 2.187v80.373c0 1.947-2.1004 3.153-3.7823 2.18z"/><path d="m199.5 135.529v31.472c0 .904-.477 1.732-1.26 2.18l-71.744 41.483c-.775.448-1.729.448-2.504 0l-24.7248-14.184c-.7827-.447-1.2672-1.283-1.2672-2.187v-31.435c0-1.933 2.087-3.143 3.764-2.187l22.183 12.728c.775.448 1.729.44 2.505 0l69.269-40.057c1.676-.97 3.771.239 3.771 2.18z"/></g></g></svg>

<svg width="250" height="250" viewBox="0 0 250 250" fill="none" xmlns="http://www.w3.org/2000/svg">
<g clip-path="url(#clip0_44_10308)">
<circle cx="125" cy="125" r="125" fill="#0A2336"/>
<path d="M96.7567 55.6198L123.954 39.8368C124.729 39.3877 125.69 39.3877 126.464 39.8368L198.145 81.4235C198.919 81.8724 199.396 82.7031 199.404 83.6012L199.5 112.204C199.5 113.109 199.023 113.948 198.241 114.397L171.081 130.157C169.413 131.13 167.32 129.917 167.313 127.979L167.223 102.31C167.223 101.412 166.74 100.582 165.965 100.133L96.7567 59.9902C95.0811 59.0174 95.0811 56.5926 96.7567 55.6198Z" fill="#A0F7A7"/>
<path d="M79.0542 185.15L51.7633 169.361C50.9784 168.912 50.5 168.08 50.5 167.174V83.9326C50.5 83.0338 50.9784 82.2024 51.7558 81.7455L76.4529 67.3427C77.2378 66.8858 78.2021 66.8858 78.9795 67.3427L106.24 83.1162C107.915 84.0898 107.922 86.509 106.248 87.4902L84.0923 100.41C83.3149 100.859 82.8365 101.691 82.8365 102.597V182.97C82.8365 184.917 80.7361 186.123 79.0542 185.15Z" fill="#A0F7A7"/>
<path d="M199.5 135.529V167.001C199.5 167.905 199.023 168.733 198.24 169.181L126.496 210.664C125.721 211.112 124.767 211.112 123.992 210.664L99.2672 196.48C98.4845 196.033 98 195.197 98 194.293V162.858C98 160.925 100.087 159.715 101.764 160.671L123.947 173.399C124.722 173.847 125.676 173.839 126.452 173.399L195.721 133.342C197.397 132.372 199.492 133.581 199.492 135.522L199.5 135.529Z" fill="#A0F7A7"/>
</g>
<defs>
<clipPath id="clip0_44_10308">
<rect width="250" height="250" fill="white"/>
</clipPath>
</defs>
</svg>
